X: 29393
T: Nice Time
R: jig
M: 6/8
K: Gmajor
|:GDG BGB|dBe dBG|F2 F DEF|FED FGA|
GDG BGB|dBe dBG|F2 F DEF|FED E2 D:|
|:G3 GAB|F2 F FED|EEE EFG|FED FGA|
GDG GAB|F2 F FED|EEE EFG|FED E2 D:|

